extensions/images/svgs/return.svg

<svg fill="none" height="18" viewBox="0 0 20 18" width="20" xmlns="http://www.w3.org/2000/svg"><path d="m18.3334 16.015c-2.0388-2.4887-3.8493-3.9009-5.4315-4.2366s-3.08861-.3864-4.51923-.1522v4.4571l-6.71592-7.2728 6.71592-6.89387v4.23625c2.64523.02091 4.89403.96991 6.74633 2.84708 1.8525 1.87714 2.9205 4.21554 3.2044 7.01504z" fill="#1c1b1d" stroke="#1c1b1d"/></svg>

<svg width="20" height="18" viewBox="0 0 20 18" fill="none" xmlns="http://www.w3.org/2000/svg">
    <path fillRule="evenodd" clipRule="evenodd"
        d="M18.3334 16.015C16.2946 13.5263 14.4841 12.1141 12.9019 11.7784C11.3197 11.4427 9.81329 11.392 8.38267 11.6262V16.0833L1.66675 8.8105L8.38267 1.91663V6.15288C11.0279 6.17379 13.2767 7.12279 15.129 8.99996C16.9815 10.8771 18.0495 13.2155 18.3334 16.015Z"
        fill="#1C1B1D" stroke="#1C1B1D" strokeWidth="2" strokeLinejoin="round" />
</svg>
